assets/img/homepage/icon-partner/icon-partners.svg

<?xml version="1.0" encoding="UTF-8"?>
<svg width="50px" height="50px" viewBox="0 0 50 50" version="1.1" xmlns="http://www.w3.org/2000/svg" xmlns:xlink="http://www.w3.org/1999/xlink">
    <title>icon-partners</title>
    <g id="icon-partners" stroke="none" stroke-width="1" fill="none" fill-rule="evenodd">
        <path d="M25.0615653,8.03277932 L24.93798,10.0289573 C24.6266015,10.0096796 24.3137582,10 23.9997285,10 L23.9997285,8 C24.3549928,8 24.7090508,8.01095482 25.0615653,8.03277932 Z M27.1685932,8.29600095 L26.7968122,10.2611419 C26.4905392,10.2031987 26.1819874,10.1547826 25.8714753,10.1160095 L26.1192877,8.13142159 C26.4713445,8.17538236 26.8212391,8.23028573 27.1685932,8.29600095 Z M29.2371056,8.82481779 L28.6200606,10.7272519 C28.3232266,10.6309752 28.0232025,10.5439952 27.7203423,10.4664716 L28.2162957,8.52893959 C28.559917,8.61689691 28.9003241,8.71558439 29.2371056,8.82481779 Z M31.2380314,9.61806452 L30.3840974,11.426599 C30.101558,11.2931926 29.8148509,11.1686613 29.5243541,11.0532156 L30.2629804,9.19460554 C30.592466,9.32554574 30.9176269,9.46677945 31.2380314,9.61806452 Z M33.0847285,10.6348273 L32.013354,12.3236602 C31.7493228,12.1561621 31.4801489,11.9969506 31.2062187,11.8462879 L32.1700611,10.0938588 C32.4805176,10.264611 32.7855519,10.4450333 33.0847285,10.6348273 Z M34.8190188,11.8944254 L33.5445767,13.4357876 C33.3035823,13.2365265 33.0564774,13.0448025 32.8036388,12.8609266 L33.9799544,11.2434342 C34.2662967,11.4516756 34.5461255,11.6687894 34.8190188,11.8944254 Z M36.3899033,13.3691079 L34.9320771,14.7383204 C34.7180033,14.510392 34.4969016,14.2891356 34.2691228,14.0749022 L35.6393547,12.6180341 C35.8972299,12.8605742 36.1475438,13.1110632 36.3899033,13.3691079 Z M37.7711532,15.0402376 L36.1519212,16.2141574 C35.9683513,15.9609525 35.7769184,15.7134742 35.5779335,15.4721 L37.1211469,14.1999002 C37.3464714,14.4732251 37.5632569,14.7534785 37.7711532,15.0402376 Z M38.87081,16.7662437 L37.1225085,17.7375531 C36.9707049,17.4643152 36.8103766,17.1958654 36.6417877,16.9325896 L38.3260618,15.8540625 C38.5170867,16.1523752 38.6987695,16.4565806 38.87081,16.7662437 Z M39.7911053,18.7015902 L37.9341549,19.4443791 C37.8180776,19.1541892 37.6929258,18.8678049 37.558911,18.5856043 L39.3655415,17.7276497 C39.5175146,18.0476657 39.6594502,18.3724564 39.7911053,18.7015902 Z M40.4607683,20.7444789 L38.5244249,21.2450527 C38.4461683,20.942337 38.3584579,20.6424756 38.2614544,20.345823 L40.1624054,19.7242239 C40.2724632,20.0607986 40.3719793,20.401021 40.4607683,20.7444789 Z M40.8656157,22.8589993 L38.881345,23.1093388 C38.8421569,22.7987212 38.7933169,22.4900744 38.7349415,22.1837177 L40.6995929,21.8093587 C40.7657991,22.1568113 40.8211838,22.506818 40.8656157,22.8589993 Z M38.9997028,25.0280519 L38.9997191,24.9829948 C38.9993804,24.6786896 38.9899512,24.3755037 38.9715058,24.0736905 L40.9677811,23.9516871 L40.9914367,24.4653529 L40.9996994,25.031724 L38.9997028,25.0280519 Z M40.864185,27.1523104 L38.8800829,26.9006379 C38.9193501,26.5910683 38.9490183,26.2796233 38.9689891,25.9666031 L40.964931,26.093945 C40.9423076,26.4485424 40.9086896,26.801451 40.864185,27.1523104 Z M40.4641436,29.2424431 L38.5273998,28.7434205 C38.6052423,28.4413082 38.6736462,28.1364555 38.732474,27.8292004 L40.6967941,28.2052941 C40.6300607,28.5538399 40.5524579,28.8996886 40.4641436,29.2424431 Z M39.7993126,31.2778528 L37.9413905,30.5374977 C38.0569384,30.2475302 38.1633901,29.9538783 38.2605606,29.6569096 L40.1613913,30.2788764 C40.0511513,30.6157876 39.9303872,30.9489208 39.7993126,31.2778528 Z M38.8714672,33.2325732 L37.1230884,32.2614031 C37.2747741,31.9883262 37.4178884,31.7105712 37.5521936,31.4285217 L39.3579247,32.2883677 C39.2056527,32.6081486 39.0434096,32.9230287 38.8714672,33.2325732 Z M37.7435778,34.9976885 L36.127574,33.8193287 C36.31181,33.5666674 36.4881292,33.3083603 36.6562435,33.0447911 L38.3424399,34.1203104 C38.1519871,34.4189018 37.9522577,34.7115047 37.7435778,34.9976885 Z M36.3714595,36.6504987 L34.915786,35.2789978 C35.1302468,35.051375 35.3376021,34.817159 35.5375187,34.5767154 L37.0753854,35.8553733 C36.8490315,36.1276136 36.6142649,36.3927917 36.3714595,36.6504987 Z M34.7917236,38.1280956 L33.5204707,36.584102 C33.7619603,36.3852707 33.9972538,36.1789636 34.2259841,35.9655126 L35.5905156,37.4277212 C35.3315526,37.6693852 35.0651517,37.9029676 34.7917236,38.1280956 Z M33.0291353,39.4002901 L31.9642872,37.7073345 C32.2288422,37.5409327 32.488187,37.3662952 32.7419378,37.1837076 L33.9100714,38.8071187 C33.6226438,39.0139387 33.3288548,39.2117702 33.0291353,39.4002901 Z M31.2508559,40.3758736 L30.3954074,38.568055 C30.6779458,38.4343596 30.9562036,38.2918345 31.2297965,38.1407166 L32.1967854,39.8914114 C31.8866509,40.0627129 31.5711959,40.2242907 31.2508559,40.3758736 Z M29.2570877,41.1686874 L28.6376728,39.2670235 C28.9348944,39.1702118 29.2288065,39.0641072 29.5190414,38.9488946 L30.2569541,40.807788 C29.9277172,40.938483 29.5942872,41.0588539 29.2570877,41.1686874 Z M27.1739251,41.7029894 L26.8015129,39.737968 C27.1088879,39.6797141 27.4138735,39.6118809 27.716132,39.5346055 L28.2115188,41.4722824 C27.8686002,41.559953 27.5226034,41.6369077 27.1739251,41.7029894 Z M25.033039,41.9689628 L24.9127903,39.972581 C25.2256941,39.9537338 25.5370469,39.9252016 25.8465504,39.8870816 L26.0910331,41.8720824 C25.7402664,41.9152846 25.3874823,41.9476135 25.033039,41.9689628 Z M22.8735753,41.9631171 L23.0046865,39.9674192 C23.3160224,39.987873 23.6288467,39.9987255 23.9428797,39.9998942 L23.9354364,41.9998804 C23.5801358,41.9985581 23.2260692,41.9862748 22.8735753,41.9631171 Z M20.7655504,41.6915093 L21.145064,39.7278471 C21.4514551,39.7870628 21.7601572,39.8367345 22.0708496,39.8767449 L21.8154029,41.8603646 C21.463127,41.8149991 21.1130492,41.7586698 20.7655504,41.6915093 Z M18.6993222,41.1546019 L19.3238422,39.2546086 C19.6204648,39.3521072 19.9203101,39.4403095 20.223023,39.519054 L19.7195209,41.454638 C19.376066,41.3652954 19.0358621,41.2652212 18.6993222,41.1546019 Z M16.7028853,40.3541574 L17.5637321,38.5489032 C17.8457603,38.6833901 18.1319859,38.8090181 18.4220304,38.9255749 L17.6762767,40.7813366 C17.3473106,40.6491388 17.0227028,40.5066644 16.7028853,40.3541574 Z M14.8611523,39.3310444 L15.9388154,37.6462173 C16.2020505,37.81459 16.4704508,37.9747071 16.7436306,38.1263053 L15.7731683,39.8750771 C15.4635699,39.7032688 15.1594198,39.5218247 14.8611523,39.3310444 Z M13.129842,38.0635763 L14.4101955,36.527121 C14.6504888,36.7273614 14.8969251,36.9200856 15.1491275,37.1049808 L13.9666217,38.7179532 C13.6810048,38.5085611 13.4019376,38.2903181 13.129842,38.0635763 Z M11.5650288,36.5833045 L13.0280519,35.2196464 C13.2412243,35.4483519 13.4614489,35.670415 13.6883761,35.8854838 L12.3126,37.3371174 C12.0556893,37.093632 11.8063684,36.8422297 11.5650288,36.5833045 Z M10.1894345,34.9059285 L11.8132174,33.7383117 C11.9956987,33.9920851 12.1860578,34.2401682 12.3839856,34.4821835 L10.8358056,35.7483345 C10.6116747,35.4742796 10.3961016,35.1933366 10.1894345,34.9059285 Z M9.09677543,33.1761263 L10.8488292,32.2116017 C10.9996012,32.4854783 11.1589204,32.7545952 11.3265245,33.0185663 L9.63810863,34.090598 C9.44819509,33.7914902 9.26765115,33.4865212 9.09677543,33.1761263 Z M8.18388793,31.2369017 L10.0437348,30.5013955 C10.1586816,30.7920569 10.2827182,31.0789423 10.4156349,31.3616738 L8.60566851,32.2125685 C8.45493723,31.8919429 8.31426326,31.5665769 8.18388793,31.2369017 Z M7.52249014,29.1923571 L9.46075491,28.6992753 C9.53783896,29.0022865 9.62438477,29.3024715 9.7202331,29.5994768 L7.8168911,30.2137155 C7.70814346,29.8767392 7.6099486,29.5361492 7.52249014,29.1923571 Z M7.12564866,27.0750222 L9.11088482,26.8324581 C9.14886443,27.1432975 9.19650239,27.4521913 9.2536834,27.7588212 L7.28757749,28.1254649 C7.22272806,27.7777134 7.16870845,27.4274398 7.12564866,27.0750222 Z M8.99996856,24.9143676 L8.9997365,25.0156077 C9.00002782,25.3008073 9.00830391,25.585026 9.02450403,25.8680556 L7.02777221,25.982345 L7.00700125,25.5007353 L7,24.9031532 L8.99996856,24.9143676 Z M7.14347731,22.783969 L9.12661199,23.0431539 C9.08617575,23.3525489 9.05533526,23.6638439 9.03418987,23.9767376 L7.03874136,23.841885 C7.06269696,23.487408 7.09764536,23.1346489 7.14347731,22.783969 Z M7.55142784,20.6955043 L9.48626018,21.2018874 C9.4073062,21.5035616 9.33777425,21.808001 9.277803,22.1148669 L7.31493609,21.731261 C7.38296791,21.38315 7.46185153,21.0377653 7.55142784,20.6955043 Z M8.22450898,18.6613475 L10.0795465,19.4089007 C9.96284108,19.6985027 9.85522348,19.9918207 9.75688042,20.2884861 L7.8584694,19.6591725 C7.97003845,19.3226091 8.09212345,18.9898594 8.22450898,18.6613475 Z M9.1605291,16.7091172 L10.9050778,17.6871508 C10.7522173,17.9598129 10.6079204,18.2371901 10.472427,18.5188978 L8.67006467,17.6520126 C8.82367997,17.3326273 8.98725947,17.0181836 9.1605291,16.7091172 Z M10.2936437,14.9507243 L11.9052269,16.1351227 C11.7200592,16.3870761 11.5427846,16.6447033 11.3736927,16.9076212 L9.69154906,15.8257743 C9.88310509,15.5279273 10.0839125,15.2361007 10.2936437,14.9507243 Z M11.6743099,13.30054 L13.124578,14.6777554 C12.9091366,14.9046246 12.7007793,15.1381211 12.4998409,15.3778794 L10.966988,14.0932152 C11.1944965,13.8217536 11.4303957,13.5573923 11.6743099,13.30054 Z M13.2580793,11.8306124 L14.5234491,13.3794311 C14.2812578,13.577299 14.0452313,13.7826645 13.8157373,13.9951968 L12.456791,12.5277961 C12.7166204,12.2871704 12.9838536,12.0546521 13.2580793,11.8306124 Z M15.0273055,10.5640246 L16.0854626,12.2611703 C15.820223,12.4265451 15.5601641,12.6001792 15.3056702,12.7817886 L14.1439229,11.1538011 C14.4321985,10.9480848 14.7268032,10.7513855 15.0273055,10.5640246 Z M16.8064169,9.5969018 L17.6550371,11.4079357 C17.372091,11.5405195 17.0933934,11.6819434 16.8193278,11.8319724 L15.8589674,10.0776327 C16.1696454,9.90756134 16.4856069,9.747228 16.8064169,9.5969018 Z M18.804068,8.81134715 L19.4161653,10.7153789 C19.1185727,10.8110473 18.8242607,10.9160196 18.5335965,11.0301127 L17.8028269,9.16839955 C18.132556,9.03897254 18.466444,8.91988461 18.804068,8.81134715 Z M20.8901077,8.28490214 L21.254876,10.2513568 C20.9472787,10.3084147 20.6420436,10.3750569 20.3395073,10.4511476 L19.8516809,8.51155348 C20.1949105,8.42522797 20.5411847,8.34962577 20.8901077,8.28490214 Z M23.0315591,8.0272382 L23.1441914,10.0240642 C22.8312136,10.0417179 22.5197626,10.0690557 22.2101356,10.1059816 L21.9732957,8.12005436 C22.3241827,8.07820788 22.6770561,8.04723419 23.0315591,8.0272382 Z" id="bg-circle" fill="#CEDCED" fill-rule="nonzero"></path>
        <g id="handshake" transform="translate(7.000000, 11.375000)" fill-rule="nonzero">
            <path d="M27.8291949,8.93178832 L20.4073335,8.93178832 L20.4073335,11.6663944 C20.4073335,13.6050348 18.830188,15.1823165 16.891715,15.1823165 C14.953242,15.1823165 13.3760964,13.6050348 13.3760964,11.6663944 L13.3760964,5.72839263 L10.2071569,7.63285044 C9.26477587,8.19442133 8.68860505,9.21501538 8.68860505,10.3088578 L8.68860505,12.6186233 L4.78236223,14.8746733 C4.03529329,15.3043971 3.7765047,16.2615092 4.21107422,17.0086427 L8.11731704,23.7767927 C8.54700375,24.5239262 9.50403324,24.7778539 10.2511022,24.3481301 L15.299921,21.4328447 L21.9698306,21.4328447 C23.6934603,21.4328447 25.0948249,20.031359 25.0948249,18.3075806 L25.8760735,18.3075806 C26.7403297,18.3075806 27.4385706,17.6092794 27.4385706,16.7449485 L27.4385706,13.6196844 L27.8291949,13.6196844 C28.4786078,13.6196844 29.0010677,13.0971794 29.0010677,12.4477104 L29.0010677,10.1037624 C29.0010677,9.45429341 28.4786078,8.93178832 27.8291949,8.93178832 Z" id="Path" fill="#3D9BDA" transform="translate(16.500534, 15.142723) rotate(-330.000000) translate(-16.500534, -15.142723) "></path>
            <path d="M38.1669268,12.5484097 L34.260684,5.78025969 C33.8309973,5.03312624 32.8739678,4.77919853 32.1268989,5.20892235 L27.07808,8.12420775 L22.0878548,8.12420775 C21.5019184,8.12420775 20.9306304,8.2902374 20.4325844,8.59788059 L18.7968452,9.61847464 C18.3378617,9.9017017 18.0644247,10.4046739 18.0644247,10.9418286 L18.0644247,17.109342 C18.0644247,18.1885347 18.9384465,19.062632 20.0175461,19.062632 C21.0966457,19.062632 21.9706675,18.1885347 21.9706675,17.109342 L21.9706675,12.8121039 L30.955026,12.8121039 C32.4638123,12.8121039 33.689396,14.0377934 33.689396,15.5467099 L33.689396,16.9384291 L37.5956388,14.6823791 C38.3427077,14.2477721 38.5966135,13.2955432 38.1669268,12.5484097 Z" id="Path" fill="#0071BB" transform="translate(28.220128, 12.031316) rotate(-330.000000) translate(-28.220128, -12.031316) "></path>
        </g>
    </g>
</svg>

<svg width="50" height="50" xmlns="http://www.w3.org/2000/svg"><g fill="none"><path d="M25.062 8.033l-.124 1.996c-.311-.02-.624-.029-.938-.029V8c.355 0 .71.011 1.062.033zm2.107.263l-.372 1.965a14.927 14.927 0 00-.926-.145l.248-1.985c.352.044.702.1 1.05.165zm2.068.529l-.617 1.902a14.86 14.86 0 00-.9-.26l.496-1.938c.344.088.684.187 1.021.296zm2.001.793l-.854 1.809c-.282-.134-.57-.258-.86-.374l.739-1.858c.33.13.655.272.975.423zm1.847 1.017l-1.072 1.689a15.012 15.012 0 00-.807-.478l.964-1.752c.31.17.616.351.915.54zm1.734 1.26l-1.274 1.54c-.241-.198-.489-.39-.741-.574l1.176-1.618c.286.209.566.426.839.651zm1.57 1.474l-1.457 1.37c-.214-.229-.435-.45-.663-.664l1.37-1.457c.258.243.509.493.75.751zm1.382 1.671l-1.62 1.174c-.183-.253-.374-.5-.573-.742L37.12 14.2c.225.273.442.553.65.84zm1.1 1.726l-1.748.972a15.016 15.016 0 00-.481-.805l1.684-1.079c.191.298.373.603.545.912zm.92 1.936l-1.857.742c-.116-.29-.241-.576-.375-.858l1.807-.858c.152.32.293.644.425.974zm.67 2.042l-1.937.501a14.86 14.86 0 00-.263-.9l1.901-.62c.11.336.21.676.299 1.02zm.405 2.115l-1.985.25c-.039-.31-.088-.619-.146-.925l1.965-.375c.066.348.121.698.166 1.05zM39 25.029v-.046c0-.304-.01-.607-.028-.91l1.996-.121.023.513.009.567-2-.004zm1.864 2.123l-1.984-.251c.04-.31.069-.621.089-.934l1.996.127c-.023.355-.056.707-.1 1.058zm-.4 2.09l-1.937-.499c.078-.302.147-.607.205-.914l1.965.376c-.067.349-.145.695-.233 1.037zm-.665 2.036l-1.858-.74c.116-.29.222-.584.32-.881l1.9.622c-.11.337-.23.67-.362.999zm-.928 1.955l-1.748-.972c.152-.273.295-.55.43-.832l1.805.86c-.152.32-.315.634-.487.944zm-1.127 1.765l-1.616-1.179c.184-.252.36-.51.528-.774l1.686 1.075c-.19.299-.39.592-.598.878zM36.37 36.65l-1.455-1.371c.214-.228.422-.462.622-.702l1.537 1.278c-.226.273-.46.538-.704.795zm-1.58 1.478l-1.27-1.544c.241-.199.476-.405.705-.618l1.365 1.462c-.26.241-.526.475-.8.7zM33.03 39.4l-1.065-1.693c.265-.166.524-.34.778-.523l1.168 1.623c-.287.207-.581.405-.88.593zm-1.778.976l-.856-1.808c.283-.134.561-.276.835-.427l.967 1.75c-.31.172-.626.333-.946.485zm-1.994.793l-.62-1.902c.298-.097.592-.203.882-.318l.738 1.859c-.33.13-.663.25-1 .36zm-2.083.534l-.372-1.965c.307-.058.612-.126.914-.203l.496 1.937c-.343.088-.69.165-1.038.231zm-2.141.266l-.12-1.996c.313-.02.624-.048.934-.086l.244 1.985c-.35.043-.704.076-1.058.097zm-2.16-.006l.132-1.996c.311.02.624.032.938.033l-.008 2a17.01 17.01 0 01-1.061-.037zm-2.107-.271l.38-1.964c.305.06.614.109.925.149l-.256 1.983a16.923 16.923 0 01-1.05-.168zm-2.067-.537l.625-1.9c.296.097.596.185.899.264l-.503 1.936a16.86 16.86 0 01-1.02-.3zm-1.996-.8l.86-1.806c.283.134.569.26.859.377l-.746 1.855a16.915 16.915 0 01-.973-.427zM14.86 39.33l1.078-1.685c.263.169.531.329.805.48l-.97 1.75c-.31-.173-.615-.354-.913-.545zm-1.731-1.267l1.28-1.537c.24.2.487.393.74.578l-1.183 1.613c-.286-.21-.565-.428-.837-.654zm-1.565-1.48l1.463-1.364c.213.228.433.45.66.665l-1.375 1.452a17.137 17.137 0 01-.748-.754zm-1.376-1.678l1.624-1.168c.183.254.373.502.571.744l-1.548 1.266a17.1 17.1 0 01-.647-.842zm-1.092-1.73l1.752-.964c.15.273.31.543.478.807L9.638 34.09c-.19-.3-.37-.604-.541-.915zm-.913-1.94l1.86-.735c.115.291.239.578.372.86l-1.81.852a16.91 16.91 0 01-.422-.976zm-.662-2.044l1.939-.493c.077.303.163.603.26.9l-1.904.615a16.86 16.86 0 01-.295-1.022zm-.396-2.117l1.985-.243c.038.311.086.62.143.927l-1.966.366a16.93 16.93 0 01-.162-1.05zM9 24.915v.1c0 .286.008.57.025.853l-1.997.114-.021-.481L7 24.903l2 .011zm-1.857-2.131l1.984.26c-.04.309-.072.62-.093.933l-1.995-.135c.024-.355.059-.707.104-1.058zm.408-2.088l1.935.506c-.079.302-.148.606-.208.913l-1.963-.384c.068-.348.147-.693.236-1.035zm.674-2.035l1.855.748c-.117.29-.225.583-.323.88l-1.899-.63c.112-.336.234-.67.367-.998zm.936-1.952l1.744.978c-.153.273-.297.55-.433.832l-1.802-.867c.154-.32.317-.634.49-.943zm1.133-1.758l1.611 1.184c-.185.252-.362.51-.531.773l-1.682-1.082c.191-.298.392-.59.602-.875zm1.38-1.65l1.45 1.377c-.215.227-.423.46-.624.7l-1.533-1.285c.227-.271.463-.536.707-.792zm1.584-1.47l1.265 1.548c-.242.198-.478.404-.707.616l-1.36-1.467c.26-.24.528-.473.802-.697zm1.77-1.267l1.057 1.697c-.265.166-.525.34-.78.52l-1.161-1.627c.288-.206.583-.403.883-.59zm1.778-.967l.849 1.81c-.283.134-.562.275-.836.425l-.96-1.754c.31-.17.627-.33.947-.481zm1.998-.786l.612 1.904c-.297.096-.592.201-.882.315l-.731-1.862c.33-.129.663-.248 1.001-.357zm2.086-.526l.365 1.966a14.74 14.74 0 00-.915.2l-.488-1.94c.343-.086.69-.161 1.038-.226zm2.142-.258l.112 1.997c-.313.018-.624.045-.934.082l-.237-1.986c.351-.042.704-.073 1.059-.093z" fill="#CEDCED"/><path d="M36.417 26.803l-6.428-3.71-1.367 2.368a3.52 3.52 0 01-4.802 1.287 3.52 3.52 0 01-1.287-4.803l2.969-5.143-3.697.065a3.119 3.119 0 00-2.653 1.559l-1.155 2h-4.51a1.559 1.559 0 00-1.562 1.563l-.002 7.814c-.001.862.7 1.56 1.563 1.562h5.83l5.776 3.335a3.128 3.128 0 004.269-1.144l.677.39a1.56 1.56 0 002.134-.572l1.563-2.706.338.195a1.17 1.17 0 001.6-.429l1.173-2.03a1.17 1.17 0 00-.43-1.6z" fill="#3D9BDA"/><path d="M43.576 28.828v-7.815c.002-.862-.7-1.56-1.561-1.562h-5.83l-4.322-2.494a3.148 3.148 0 00-1.67-.418l-1.927.066a1.552 1.552 0 00-1.296.78l-3.084 5.341a1.953 1.953 0 103.383 1.953l2.149-3.721 7.78 4.492a2.736 2.736 0 011.001 3.735l-.696 1.206 4.511-.001c.864-.003 1.56-.7 1.562-1.562z" fill="#0071BB"/></g></svg>
